X:1
T:Aus tiefer Not (mel. 1, 4vv-3, XLVII)
T:Michael Praetorius
T:Aus tiefer Not (mel. 1, 4vv-3, XLVII)
C:Michael Praetorius
%%score [ 1 2 3 4 ]
L:1/8
Q:1/4=120
M:4/2
K:C
V:1 treble nm="Soprano" snm="S"
V:2 treble nm="Alto" snm="A"
V:3 treble-8 nm="Tenor" snm="T"
V:4 bass nm="Bass" snm="B"
V:1
 B8 E4 B4 | c4 B4 G4 A4 | B8 z4 B4 | c4 d4 c4 A4 | G4 F4 E8 :| z4 A4 G4 c4 | B4 A2 d4 c2 B2 B2 | %7
w: Aus tie- fer|Not schrei ich zu|dir, Herr|Gott, er- hör mein|Ru- * fen.|Denn so du|willst das se- * * hen|
w: Dein gnä- dig|Oh- ren kehr zu|mir, und|mei- ner Bitt sie|öf- * fen.|||
 A8 z4 c4 | B4 c4 d4 G4 | B2 c2 A4 G8 | z4 G4 c4 B4 | A4 E4 G4 F4 | E16- | E16 |] %14
w: an, was|Sünd und Un- recht|ist _ ge- tan,|wer kann, Herr,|vor dir blei- *|ben?|_|
w: |||||||
V:2
 E8 C4 B,4 | E4 G4 E4 E4 | ^F8 z4 G4 | C4 G4 G4 F4 | D8 B,8 :| z4 D4 E4 G4 | G4 F4 E4 E4 | %7
w: Aus tie- fer|Not schrei ich zu|dir, Herr|Gott, er- hör mein|Ru- fen.|Denn so du|willst das se- hen|
w: Dein gnä- dig|Oh- ren kehr zu|mir, und|mei- ner Bitt sie|öf- fen.|||
 E8 z4 E4 | G4 G4 F4 E4 | D2 G4 ^F2 G8 | z4 E4 E4 D4 | C4 C4 E4 D4 | C8 B,8- | B,16 |] %14
w: an, was|Sünd und Un- recht|ist _ ge- tan,|wer kann, Herr,|vor dir blei- *|* ben?|_|
w: |||||||
V:3
 ^G8 A4 =G4 | A4 B4 B4 A4 | d8 z4 e4 | e4 B4 e4 c4 | B4 A4 ^G8 :| z4 A4 B4 e4 | d6 B4 A4 ^G2 | %7
w: Aus tie- fer|Not schrei ich zu|dir, Herr|Gott, er- hör mein|Ru- * fen.|Denn so du|willst se- * hen|
w: Dein gnä- dig|Oh- ren kehr zu|mir, und|mei- ner Bitt sie|öf- * fen.|||
 A8 z4 A4 | d4 G4 A4 c4 | B2 G2 A4 B8 | z4 c4 G4 G4- | G2 F2 G6 c4 B2- | B2 A2 ^G2 ^F2 G8- | G16 |] %14
w: an, was|Sünd und Un- recht|ist _ ge- tan,|wer kann, Herr,|_ vor dir blei- *|* * * * ben?|_|
w: |||||||
V:4
 E,8 E,4 E,4 | A,,4 E,4 E,4 C,4 | B,,8 z4 E,4 | A,4 G,4 C,4 F,4 | G,4 D,4 E,8 :| z4 F,4 E,4 C,4 | %6
w: Aus tie- fer|Not schrei ich zu|dir, Herr|Gott, er- hör mein|Ru- * fen.|Denn so du|
w: Dein gnä- dig|Oh- ren kehr zu|mir, und|mei- ner Bitt sie|öf- * fen.||
 G,4 D,4 E,4 E,4 | A,,8 z4 A,4 | G,4 E,4 D,4 C,4 | G,2 E,2 D,4 G,8 | z4 C,4 C,4 G,,4 | %11
w: willst das se- hen|an, was|Sünd und Un- recht|ist _ ge- tan,|wer kann, Herr,|
w: |||||
 A,,4 C,4 C,4 D,4 | E,16- | E,16 |] %14
w: vor dir blei- *|ben?|_|
w: |||

